assets/img/braze_icons/heart-circle.svg

<svg fill="none" height="24" viewBox="0 0 24 24" width="24" xmlns="http://www.w3.org/2000/svg"><path clip-rule="evenodd" d="m12 1c-6.07513 0-11 4.92487-11 11 0 6.0751 4.92487 11 11 11 6.0751 0 11-4.9249 11-11 0-6.07513-4.9249-11-11-11zm-3.92265 7.65501c1.25252-1.07019 2.91955-.75581 3.91925.4129.9997-1.16871 2.6451-1.47183 3.9192-.4129 1.2741 1.05892 1.4289 2.85949.4453 4.12519-.6301.8107-2.2435 2.314-3.3222 3.2902-.3584.3243-.5377.4865-.7523.5516-.1846.0559-.3955.0559-.58 0-.2147-.0651-.3939-.2273-.7524-.5516-1.07862-.9762-2.69209-2.4795-3.3221-3.2902-.98362-1.2657-.80728-3.05501.44525-4.12519z" fill="#801ed7" fill-rule="evenodd"/></svg>

<svg width="24" height="24" viewBox="0 0 24 24" fill="none" xmlns="http://www.w3.org/2000/svg">
<path fill-rule="evenodd" clip-rule="evenodd" d="M12 1C5.92487 1 1 5.92487 1 12C1 18.0751 5.92487 23 12 23C18.0751 23 23 18.0751 23 12C23 5.92487 18.0751 1 12 1ZM8.07735 8.65501C9.32987 7.58482 10.9969 7.8992 11.9966 9.06791C12.9963 7.8992 14.6417 7.59608 15.9158 8.65501C17.1899 9.71393 17.3447 11.5145 16.3611 12.7802C15.731 13.5909 14.1176 15.0942 13.0389 16.0704C12.6805 16.3947 12.5012 16.5569 12.2866 16.622C12.102 16.6779 11.8911 16.6779 11.7066 16.622C11.4919 16.5569 11.3127 16.3947 10.9542 16.0704C9.87558 15.0942 8.26211 13.5909 7.6321 12.7802C6.64848 11.5145 6.82482 9.72519 8.07735 8.65501Z" fill="#801ED7"/>
</svg>
